public/images/aws.svg

<svg width="55" height="34" viewBox="0 0 55 34" fill="none" xmlns="http://www.w3.org/2000/svg">
<g id="Group 54">
<path id="Vector" d="M15.533 12.5378C15.533 13.2144 15.6058 13.7631 15.7332 14.1654C15.8788 14.5678 16.0607 15.0067 16.3155 15.4822C16.4065 15.6285 16.4429 15.7748 16.4429 15.9028C16.4429 16.0857 16.3337 16.2685 16.0971 16.4514L14.9506 17.2195C14.7869 17.3292 14.6231 17.3841 14.4775 17.3841C14.2955 17.3841 14.1135 17.2927 13.9315 17.1281C13.6768 16.8538 13.4584 16.5611 13.2764 16.2685C13.0944 15.9576 12.9124 15.6102 12.7122 15.1895C11.2928 16.872 9.50935 17.7133 7.36195 17.7133C5.83329 17.7133 4.614 17.2744 3.72228 16.3966C2.83057 15.5187 2.37561 14.3483 2.37561 12.8853C2.37561 11.3308 2.92156 10.0689 4.03166 9.11792C5.14175 8.16694 6.61581 7.69146 8.49024 7.69146C9.10898 7.69146 9.74592 7.74632 10.4193 7.83776C11.0926 7.9292 11.7841 8.0755 12.5121 8.2401V6.90507C12.5121 5.51518 12.2209 4.54592 11.6567 3.97899C11.0744 3.41206 10.0917 3.13774 8.69042 3.13774C8.05348 3.13774 7.39834 3.21089 6.725 3.37548C6.05167 3.54007 5.39653 3.74124 4.75959 3.99728C4.46842 4.12529 4.25004 4.19844 4.12265 4.23502C3.99526 4.2716 3.90427 4.28988 3.83147 4.28988C3.5767 4.28988 3.44931 4.107 3.44931 3.72296V2.82684C3.44931 2.53423 3.48571 2.31478 3.5767 2.18676C3.66769 2.05874 3.83147 1.93073 4.08625 1.80271C4.72319 1.47353 5.48752 1.19921 6.37924 0.979752C7.27095 0.742007 8.21727 0.632279 9.21817 0.632279C11.3838 0.632279 12.967 1.12606 13.9861 2.11361C14.987 3.10116 15.4966 4.60078 15.4966 6.61246V12.5378H15.533ZM8.14447 15.3176C8.74502 15.3176 9.36376 15.2078 10.0189 14.9884C10.674 14.7689 11.2564 14.3666 11.7477 13.8179C12.0389 13.4705 12.2573 13.0864 12.3665 12.6475C12.4757 12.2086 12.5485 11.6782 12.5485 11.0565V10.2884C12.0207 10.1603 11.4566 10.0506 10.8742 9.97746C10.2919 9.90431 9.72773 9.86773 9.16358 9.86773C7.94429 9.86773 7.05257 10.1055 6.45203 10.5993C5.85149 11.093 5.56031 11.788 5.56031 12.7024C5.56031 13.5619 5.77869 14.202 6.23365 14.6409C6.67041 15.0981 7.30735 15.3176 8.14447 15.3176V15.3176ZM22.7577 17.2927C22.4301 17.2927 22.2118 17.2378 22.0662 17.1098C21.9206 17.0001 21.7932 16.744 21.684 16.3966L17.4074 2.25991C17.2982 1.89415 17.2436 1.65641 17.2436 1.52839C17.2436 1.23578 17.3892 1.07119 17.6804 1.07119H19.4638C19.8096 1.07119 20.0462 1.12606 20.1736 1.25407C20.3191 1.3638 20.4283 1.61983 20.5375 1.9673L23.5948 14.074L26.4338 1.9673C26.5248 1.60154 26.6339 1.3638 26.7795 1.25407C26.9251 1.14434 27.1799 1.07119 27.5075 1.07119H28.9633C29.3091 1.07119 29.5457 1.12606 29.6913 1.25407C29.8368 1.3638 29.9642 1.61983 30.037 1.9673L32.9124 14.2203L36.0607 1.9673C36.1699 1.60154 36.2972 1.3638 36.4246 1.25407C36.5702 1.14434 36.8068 1.07119 37.1344 1.07119H38.8268C39.118 1.07119 39.2818 1.2175 39.2818 1.52839C39.2818 1.61983 39.2636 1.71127 39.2454 1.821C39.2272 1.93073 39.1908 2.07703 39.118 2.2782L34.7322 16.4148C34.623 16.7806 34.4956 17.0183 34.35 17.1281C34.2044 17.2378 33.9679 17.311 33.6585 17.311H32.0934C31.7477 17.311 31.5111 17.2561 31.3655 17.1281C31.2199 17.0001 31.0925 16.7623 31.0197 16.3966L28.199 4.60078L25.3965 16.3783C25.3055 16.744 25.1963 16.9818 25.0507 17.1098C24.9051 17.2378 24.6503 17.2927 24.3228 17.2927H22.7577ZM46.1425 17.7864C45.1962 17.7864 44.2499 17.6767 43.34 17.4573C42.4301 17.2378 41.7203 17.0001 41.2472 16.7257C40.956 16.5611 40.7558 16.3783 40.683 16.2137C40.6102 16.0491 40.5738 15.8662 40.5738 15.7016V14.7689C40.5738 14.3849 40.7194 14.202 40.9924 14.202C41.1016 14.202 41.2108 14.2203 41.32 14.2569C41.4292 14.2934 41.593 14.3666 41.7749 14.4397C42.3937 14.7141 43.067 14.9335 43.7768 15.0798C44.5047 15.2261 45.2144 15.2993 45.9423 15.2993C47.0888 15.2993 47.9806 15.0981 48.5993 14.6958C49.218 14.2934 49.5456 13.7082 49.5456 12.9584C49.5456 12.4463 49.3818 12.0257 49.0543 11.6782C48.7267 11.3308 48.1079 11.0199 47.2162 10.7273L44.5775 9.90431C43.249 9.48368 42.2663 8.86189 41.6657 8.03893C41.0652 7.23426 40.7558 6.33814 40.7558 5.38716C40.7558 4.61907 40.9196 3.94241 41.2472 3.35719C41.5748 2.77198 42.0115 2.25991 42.5575 1.85758C43.1034 1.43695 43.7222 1.12606 44.4501 0.906599C45.178 0.687143 45.9423 0.595703 46.7431 0.595703C47.1434 0.595703 47.562 0.613991 47.9624 0.668855C48.3809 0.723719 48.7631 0.796871 49.1453 0.870023C49.5092 0.961464 49.855 1.0529 50.1826 1.16263C50.5101 1.27236 50.7649 1.38209 50.9469 1.49182C51.2017 1.63812 51.3836 1.78442 51.4928 1.94902C51.602 2.09532 51.6566 2.29649 51.6566 2.55252V3.41206C51.6566 3.79611 51.511 3.99728 51.2381 3.99728C51.0925 3.99728 50.8559 3.92412 50.5465 3.77782C49.5092 3.30233 48.3445 3.06459 47.0524 3.06459C46.0151 3.06459 45.1962 3.22918 44.6321 3.57665C44.0679 3.92412 43.7768 4.45448 43.7768 5.20428C43.7768 5.71635 43.9587 6.15526 44.3227 6.50273C44.6867 6.85021 45.36 7.19768 46.3245 7.50858L48.9087 8.33154C50.2189 8.75216 51.1653 9.33738 51.7294 10.0872C52.2936 10.837 52.5665 11.6965 52.5665 12.6475C52.5665 13.4339 52.4027 14.1471 52.0934 14.7689C51.7658 15.3907 51.329 15.9394 50.7649 16.3783C50.2008 16.8355 49.5274 17.1647 48.7449 17.4024C47.926 17.6584 47.0706 17.7864 46.1425 17.7864V17.7864Z" fill="#252F3E"/>
<g id="Group">
<path id="Vector_2" fill-rule="evenodd" clip-rule="evenodd" d="M49.582 26.6744C43.5947 31.1184 34.896 33.4776 27.4165 33.4776C16.9343 33.4776 7.48935 29.5822 0.355624 23.1082C-0.208522 22.5962 0.30103 21.9012 0.974366 22.3036C8.69044 26.8024 18.2081 29.5273 28.0534 29.5273C34.6958 29.5273 41.9933 28.1375 48.7085 25.2845C49.7094 24.8273 50.5647 25.9429 49.582 26.6744V26.6744Z" fill="#FF9900"/>
<path id="Vector_3" fill-rule="evenodd" clip-rule="evenodd" d="M52.0752 23.8215C51.3109 22.8339 47.0161 23.346 45.0689 23.5837C44.4865 23.6569 44.3955 23.1448 44.9233 22.7608C48.3445 20.3468 53.9678 21.0417 54.6229 21.8464C55.2781 22.6693 54.441 28.3203 51.2381 31.027C50.7467 31.4476 50.2736 31.2281 50.4919 30.6795C51.2199 28.869 52.8395 24.7908 52.0752 23.8215V23.8215Z" fill="#FF9900"/>
</g>
</g>
</svg>

<svg xmlns="http://www.w3.org/2000/svg" width="55" height="34" fill="none"><path fill="#252F3E" d="M15.533 12.538c0 .676.073 1.225.2 1.627.146.403.328.842.582 1.317a.798.798 0 0 1 .128.42c0 .184-.11.367-.346.55l-1.146.767a.87.87 0 0 1-.474.165c-.181 0-.364-.091-.546-.256a5.66 5.66 0 0 1-.655-.86c-.182-.31-.364-.658-.564-1.079-1.42 1.683-3.203 2.524-5.35 2.524-1.529 0-2.748-.439-3.64-1.316-.891-.878-1.346-2.049-1.346-3.512 0-1.554.546-2.816 1.656-3.767C5.142 8.167 6.616 7.69 8.49 7.69c.619 0 1.256.055 1.93.147.673.091 1.364.237 2.092.402V6.905c0-1.39-.291-2.36-.855-2.926-.583-.567-1.565-.841-2.967-.841-.637 0-1.292.073-1.965.237-.673.165-1.328.366-1.965.622-.292.128-.51.201-.637.238a1.111 1.111 0 0 1-.292.055c-.254 0-.382-.183-.382-.567v-.896c0-.293.037-.512.128-.64.09-.128.254-.256.51-.384.636-.33 1.4-.604 2.292-.823A10.982 10.982 0 0 1 9.22.632c2.165 0 3.748.494 4.767 1.482 1.001.987 1.51 2.487 1.51 4.498v5.926h.037Zm-7.389 2.78c.601 0 1.22-.11 1.875-.33.655-.22 1.237-.621 1.729-1.17.29-.348.51-.732.619-1.17.109-.44.181-.97.181-1.591v-.769a15.11 15.11 0 0 0-1.674-.31 13.646 13.646 0 0 0-1.71-.11c-1.22 0-2.111.237-2.712.731-.6.494-.892 1.189-.892 2.103 0 .86.219 1.5.674 1.939.436.457 1.073.677 1.91.677Zm14.614 1.975c-.328 0-.546-.055-.692-.183-.145-.11-.273-.366-.382-.713L17.407 2.26c-.109-.366-.163-.604-.163-.732 0-.292.145-.457.436-.457h1.784c.346 0 .582.055.71.183.145.11.254.366.364.713l3.057 12.107 2.839-12.107c.09-.365.2-.603.345-.713.146-.11.4-.183.729-.183h1.455c.346 0 .583.055.728.183.146.11.273.366.346.713l2.875 12.253 3.149-12.253c.109-.365.236-.603.364-.713.145-.11.382-.183.71-.183h1.692c.291 0 .455.147.455.457 0 .092-.018.183-.037.293-.018.11-.054.256-.127.457l-4.386 14.137c-.109.366-.236.603-.382.713-.146.11-.382.183-.692.183h-1.565c-.345 0-.582-.055-.728-.183-.145-.128-.272-.366-.345-.731L28.199 4.6l-2.803 11.777c-.09.366-.2.604-.345.732-.146.128-.4.183-.728.183h-1.565Zm23.384.493c-.946 0-1.892-.11-2.802-.329-.91-.22-1.62-.457-2.093-.731-.291-.165-.491-.348-.564-.512a1.296 1.296 0 0 1-.11-.512v-.933c0-.384.146-.567.42-.567.109 0 .218.018.327.055.11.036.273.11.455.183a9.86 9.86 0 0 0 2.002.64c.728.146 1.437.22 2.165.22 1.147 0 2.039-.202 2.657-.604.619-.403.947-.988.947-1.738 0-.512-.164-.932-.492-1.28-.327-.347-.946-.658-1.838-.95l-2.639-.824c-1.328-.42-2.31-1.042-2.911-1.865-.6-.805-.91-1.7-.91-2.652 0-.768.164-1.445.491-2.03a4.695 4.695 0 0 1 1.31-1.5 5.765 5.765 0 0 1 1.893-.95c.728-.22 1.492-.311 2.293-.311.4 0 .819.018 1.22.073.418.055.8.128 1.182.201.364.091.71.183 1.038.293.327.11.582.22.764.329.255.146.437.292.546.457.109.146.164.347.164.604v.86c0 .383-.146.584-.419.584-.145 0-.382-.073-.691-.22-1.038-.475-2.203-.712-3.495-.712-1.037 0-1.856.164-2.42.512-.564.347-.855.877-.855 1.627 0 .512.182.951.546 1.299.364.347 1.037.695 2.002 1.006l2.584.823c1.31.42 2.256 1.005 2.82 1.755.565.75.837 1.61.837 2.56 0 .787-.163 1.5-.473 2.122a4.914 4.914 0 0 1-1.328 1.61c-.564.456-1.238.786-2.02 1.023a8.616 8.616 0 0 1-2.602.384Z"/><g fill="#F90" fill-rule="evenodd" clip-rule="evenodd"><path d="M49.582 26.674c-5.987 4.444-14.686 6.804-22.166 6.804-10.482 0-19.927-3.896-27.06-10.37-.565-.512-.055-1.207.618-.804 7.716 4.498 17.234 7.223 27.08 7.223 6.642 0 13.94-1.39 20.655-4.242 1-.458 1.856.658.873 1.39Z"/><path d="M52.075 23.822c-.764-.988-5.059-.476-7.006-.238-.583.073-.674-.44-.146-.823 3.421-2.414 9.045-1.72 9.7-.915.655.823-.182 6.474-3.385 9.181-.491.42-.964.201-.746-.348.728-1.81 2.348-5.888 1.583-6.857Z"/></g></svg>
